cssgg/icecream.svg

<svg
  width="24"
  height="24"
  viewBox="0 0 24 24"
  fill="none"
  xmlns="http://www.w3.org/2000/svg"
>
  <path
    fill-rule="evenodd"
    clip-rule="evenodd"
    d="M15 17H19V8C19 4.13401 15.866 1 12 1C8.13401 1 5 4.13401 5 8V17H9V20C9 21.6569 10.3431 23 12 23C13.6569 23 15 21.6569 15 20V17ZM17 15V8C17 5.23858 14.7614 3 12 3C9.23858 3 7 5.23858 7 8V15H11V20C11 20.5523 11.4477 21 12 21C12.5523 21 13 20.5523 13 20V15H17Z"
    fill="currentColor"
  />
</svg>

<svg viewBox="0 0 24 24" xmlns="http://www.w3.org/2000/svg"><path fill-rule="evenodd" d="M15 17h4V8c0-3.87-3.14-7-7-7C8.13 1 5 4.13 5 8v9h4v3c0 1.65 1.34 3 3 3 1.65 0 3-1.35 3-3v-3Zm2-2V8c0-2.77-2.24-5-5-5C9.23 3 7 5.23 7 8v7h4v5c0 .55.44 1 1 1 .55 0 1-.45 1-1v-5h4Z"/></svg>
